X:1533
T:Mark McLoughlin's
O:ireland
C:Olcan Masterson
R:reel
D:Dervish: The Boys of Sligo
Z:id:hn-reel-230
M:C|
K:D
dABA dABA|GAFA EADA|dABA dABA|1 FAEA D3A:|2 FAEA D4||
|:df~f2 dfed|cdef gece|df~f2 dfed|1 cABc d3A:|2 cABc defg||
|:~a3g f2ed|Aeed efge|~a3g f2ed|Addc defg|
aA~A2 ~a3f|gA~A2 ~g3e|f2af gfed|1 cABc defg:|2 cABc d2 (3ABc||
